X:1
T:Onward, Christian!
T:Onward, Christian!
T:W. N. Manchester
T:W. N. Manchester, 1897
T:Public Domain Courtesy of the Cyber Hymnal™
C:W. N. Manchester
Z:Public Domain
Z:Courtesy of the Cyber Hymnal™
%%score ( 1 2 ) ( 3 4 )
L:1/8
Q:1/4=110
M:4/4
K:E
V:1 treble 
V:2 treble 
V:3 bass 
V:4 bass 
V:1
 [EB]2 [B,E]2 [B,D]2 (CD) | [B,E]2 [EA]2 [EG]2 [DF]2 | [EB]2 [^EG]2 [FA]2 [DF]2 | %3
w: 1.~On- ward! Christ- ian, *|to the con- flict,|Hark! the sound of|
w: 2.~Take ye, there- fore, *|God’s whole ar- mor,|That ye stand in|
w: 3.~Let thy feet be *|shod with san- dals|Of the glad, good|
w: 4.~Take the hel- met *|of sal- va- tion,|And the sword the|
 [CE]2 (GF) (E2 D2) | [B,B]2 [B,E]2 [B,D]2 (CD) | [B,E]2 [EA]2 [EG]2 [DF]2 | %6
w: bat- tle * near, *|Take the sword thy *|Lord hath giv’n thee,|
w: e- vil * days, *|Girt with truth, and *|as a breast- plate,|
w: news of * peace, *|Bring- ing tid- ings *|of sal- va- tion,|
w: Spir- it * wields, *|Watch and pray, yet *|rest as- sur- ed|
 [EB]2 [D^B]2 [Ec]2 (de) | [EB]2 (FG) E4 ||"^Refrain" [EB]4 [DB]4 | [EB]4 [DB]4 | %10
w: Word of truth for- *|ev- er * dear.|||
w: Right- eous- ness in *|all thy * ways.|On- ward!|on- ward!|
w: And the time when *|wars shall * cease.|||
w: God Him- self from *|per- il * shields.|||
 [GB]2 B2 [Gc]2 [Ec]2 | [Ac]2 (^Bc) d4 | [Ee]2 [EB]2 [^Ec]2 G2 | [DA]2 (GF) [EB]2 E2 | %14
w: ||||
w: Join the glad, vic-|to- rious * throng,|Al- le- lu- ia!|Al- le- * lu- ia!|
w: ||||
w: ||||
 [EF]2 [E^^F]2 [EG]2 (^FE) | [EF]2 (FG) [B,E]4 |] %16
w: ||
w: To our king shall *|be our * song.|
w: ||
w: ||
V:2
 x6 B,2 | x8 | x8 | x2 ^A,2 B,4 | x6 B,2 | x8 | x6 E2 | x2 D2 E4 || x8 | x8 | x2 (FE) x4 | %11
 x2 F2 (A2 GF) | x6 G2 | x2 D2 x E2 x | x6 C2 | x2 D2 x4 |] %16
V:3
 [E,G,]2 G,2 [F,A,]2 [B,,A,]2 | [G,,G,]2 [C,A,]2 [B,,B,]2 [A,,B,]2 | %2
w: ~ ~ ~ ~|~ ~ ~ ~|
 [G,,B,]2 [C,B,]2 [F,,C]2 ([B,,B,][^B,,A,]) | [C,G,]2 [F,,E,]2 (G,2 F,2) | %4
w: ~ ~ ~ ~ *|~ ~ ~ *|
 [E,G,]2 G,2 [F,A,]2 [B,,A,]2 | [G,,G,]2 [C,A,]2 [B,,B,]2 [A,,B,]2 | %6
w: ~ ~ ~ ~|~ ~ ~ ~|
 [G,,B,]2 [G,,G,]2 (E,G,) [^A,,^^F,]2 | [B,,G,]2 [B,,A,]2 [E,G,]4 || %8
w: ~ ~ ~ * ~|~ ~ ~|
 [G,B,]2 [E,G,]2 [F,A,]2 [B,,F,]2 | [G,B,]2 [E,G,]2 [F,A,]2 [B,,F,]2 | %10
w: On- ward march- ing,|on- ward march- ing|
 [E,G,]2 [G,B,]2 [C,E]2 [G,C]2 | [F,C]2 (DC) B,4 | [E,G,]2 [G,B,]2 [C,C]2 [^E,C]2 | %13
w: |||
 [F,,F,B,]2 [B,,B,]2 [G,,B,]2 [C,G,]2 | [A,,C]2 [^A,,C]2 [B,,B,]2 [C,^A,]2 | %15
w: ||
 [B,,B,]2 [B,,A,]2 [E,G,]4 |] %16
w: |
V:4
 x2 G,2 x4 | x8 | x8 | x4 B,,4 | x2 G,2 x4 | x8 | x4 ^A,,2 x2 | x8 || x8 | x8 | x8 | %11
 x2 A,2 (B,B,,C,D,) | x8 | x8 | x8 | x8 |] %16

